!!!OTL: Espen - Zweiglein
!!!ARE: Europa, Mitteleuropa, Deutschland
!!!SCT: A0178A
!!!YEM: Copyright 1995, estate of Helmut Schaffrath.
**kern
*ICvox
*Ivox
!! Mixed meters:  4/2; 6/2
*M6/2
*k[f#]
*G:
{2r
2g
2g
2g
=1
2cc
2a
2b
2cc
=2
1dd
2r}
{2g
2cc
2dd
=3
*M4/2
2ee
4dd
4cc
2b
2cc
=4
1dd
2cc}
{2cc
=5
2b
2cc
2dd
2ee
=6
2ee
2dd
2.cc
8b
8a
=7
1g
1cc}
=8
{2.a
4b
2cc
[2dd
=9
2dd]
2cc
2b
2b
=10
2a
2g
1a
=11
1g
1r}
==
!!!AGN: Romanze, Ballade, Lied
!! Forster III 1549 No. 27
!!!ONB: ESAC (Essen Associative Code) Database: ALTDEU
!!!AMT: irregular
!!!AIN: vox
!!!EED: Helmut Schaffrath
!!!EEV: 1.0
*-
